X:58
T:Tink a tink. JC.056
R:reel
S:John Clare,Poet,Helpston. (1793-1864)
O:England
A:Northamptonshire
Z:vmp.P. Headford
M:2/4
L:1/8
Q:1/4=120
K:G
G2d>B|G2d>B|c>dc>B|A>GF2|\
G2d>B|G2d>B|c>AG>F|G2z2:|!
|:d2A>Bc>d|B2G2|\
d2g>f|e>dc>B|A>cF>A|G2z2:|

